public/assets/BG2.svg

<svg width="3061" height="1024" fill="none" xmlns="http://www.w3.org/2000/svg"><path d="M100.023 472.598L81 588.231 0 1023.52h3060.69V534.028l-86.72 162.608-37.34-140.927-177.07 177.062-107.2-198.743-79.49-34.931-97.57 233.674-22.88-144.54-46.98-32.522-48.18 148.154h-46.98l-69.86-224.038h-32.52l-57.81 154.177h-75.89l-68.65-107.201-99.98 85.52-20.47-437.235L1753.8 45l-77.08 99.974-45.77 443.257-104.8 24.09-77.08-233.674-112.02 148.154-40.96-62.634-51.79 81.906-59.02 13.25-12.05-144.541h-48.18l-37.34 131.291h-52.99l-50.593-95.156-104.791 95.156-74.679-46.976-36.136 36.136-43.362-281.854L643.253 45l-68.656 179.471-40.954 310.762-49.384 24.09-46.976-24.09-39.748 31.317-54.203-31.317-27.704 31.317-48.18 9.636 8.432-68.657v-56.612l-65.043 13.25 6.022 71.066-26.499 31.317-34.93-93.952h-55.407z" fill="#2E5A9C"/><path d="M.605 1026.27L.616-.053 175.548 1026.27H.605z" fill="#2E5A9C"/></svg>

<svg width="3061" height="1024" viewBox="0 0 3061 1024" fill="none" xmlns="http://www.w3.org/2000/svg">
<path d="M100.023 472.598L81 588.231L0 1023.52H3060.69V534.028L2973.97 696.636L2936.63 555.709L2759.56 732.771L2652.36 534.028L2572.87 499.097L2475.3 732.771L2452.42 588.231L2405.44 555.709L2357.26 703.863H2310.28L2240.42 479.825H2207.9L2150.09 634.002H2074.2L2005.55 526.801L1905.57 612.321L1885.1 175.086L1753.8 45L1676.72 144.974L1630.95 588.231L1526.15 612.321L1449.07 378.647L1337.05 526.801L1296.09 464.167L1244.3 546.073L1185.28 559.323L1173.23 414.782H1125.05L1087.71 546.073H1034.72L984.127 450.917L879.336 546.073L804.657 499.097L768.521 535.233L725.159 253.379L643.253 45L574.597 224.471L533.643 535.233L484.259 559.323L437.283 535.233L397.535 566.55L343.332 535.233L315.628 566.55L267.448 576.186L275.88 507.529V450.917L210.837 464.167L216.859 535.233L190.36 566.55L155.43 472.598H100.023Z" fill="#2E5A9C"/>
<path d="M0.605469 1026.27L0.615997 -0.0532227L175.548 1026.27H0.605469Z" fill="#2E5A9C"/>
</svg>
